images/import-members.svg

<svg height="64" viewBox="0 0 64 64" width="64" xmlns="http://www.w3.org/2000/svg"><path d="m19.660156 4c-1.339844 0-2.601562.519531-3.542968 1.460938l-8.65625 8.65625c-.941407.953124-1.460938 2.203124-1.460938 3.542968v39.339844c0 1.648438 1.351562 3 3 3h37v1c0 .550781.449219 1 1 1h6c.550781 0 1-.449219 1-1v-12.589844l2.289062 2.300782c.390626.390624 1.03125.390624 1.421876 0l4-4c.390624-.390626.390624-1.03125 0-1.421876l-9.710938-9.707031v-28.582031c0-1.648438-1.351562-3-3-3zm.339844 2h29c.550781 0 1 .449219 1 1v15h-42v-4h9c1.652344 0 3-1.347656 3-3zm-2 .496094v8.503906c0 .550781-.449219 1-1 1h-8.496094c.109375-.164062.234375-.320312.378906-.460938l8.65625-8.65625c.140626-.144531.296876-.273437.460938-.386718zm-10 17.503906h42v10c-.261719 0-.519531.097656-.710938.289062l-11 11c-.390624.390626-.390624 1.03125 0 1.421876l4 4c.390626.390624 1.03125.390624 1.421876 0l2.289062-2.300782v3.589844c-.550781 0-1 .445312-1 1v2c0 .554688.449219 1 1 1v2h-37c-.550781 0-1-.449219-1-1v-11h27c.550781 0 1-.445312 1-1s-.449219-1-1-1h-27zm34.980469 3.996094c-.390625.007812-.753907.246094-.910157.632812l-3.070312 7.679688-3.070312-7.679688c-.207032-.511718-.785157-.765625-1.300782-.558594-.511718.203126-.761718.789063-.554687 1.300782l4 10c.148437.378906.515625.628906.925781.628906s.777344-.25.929688-.628906l4-10c.203124-.511719-.046876-1.097656-.558594-1.300782-.128906-.050781-.261719-.074218-.390625-.074218zm-25.980469.003906c-1.652344 0-3 1.347656-3 3v6c0 1.652344 1.347656 3 3 3h2c1.652344 0 3-1.347656 3-3 0-.554688-.449219-1-1-1s-1 .445312-1 1c0 .550781-.449219 1-1 1h-2c-.550781 0-1-.449219-1-1v-6c0-.550781.449219-1 1-1h2c.550781 0 1 .449219 1 1 0 .554688.449219 1 1 1s1-.445312 1-1c0-1.652344-1.347656-3-3-3zm10 0c-1.652344 0-3 1.347656-3 3v1c0 1.652344 1.347656 3 3 3h2c.550781 0 1 .449219 1 1v1c0 .550781-.449219 1-1 1h-2c-.550781 0-1-.449219-1-1 0-.554688-.449219-1-1-1s-1 .445312-1 1c0 1.652344 1.347656 3 3 3h2c1.652344 0 3-1.347656 3-3v-1c0-1.652344-1.347656-3-3-3h-2c-.550781 0-1-.449219-1-1v-1c0-.550781.449219-1 1-1h2c.550781 0 1 .449219 1 1 0 .554688.449219 1 1 1s1-.445312 1-1c0-1.652344-1.347656-3-3-3zm23 8.410156 9.589844 9.589844-2.589844 2.589844-3.289062-3.300782c-.289063-.28125-.722657-.367187-1.089844-.207031-.382813.148438-.621094.519531-.621094.917969v14h-4v-14c0-.398438-.238281-.769531-.617188-.917969-.371093-.160156-.804687-.074219-1.09375.207031l-3.289062 3.300782-2.589844-2.589844zm-39 15.589844c-.550781 0-1 .445312-1 1v2c0 .554688.449219 1 1 1s1-.445312 1-1v-2c0-.554688-.449219-1-1-1zm5 0c-.550781 0-1 .445312-1 1v2c0 .554688.449219 1 1 1s1-.445312 1-1v-2c0-.554688-.449219-1-1-1zm5 0c-.550781 0-1 .445312-1 1v2c0 .554688.449219 1 1 1s1-.445312 1-1v-2c0-.554688-.449219-1-1-1zm5 0c-.550781 0-1 .445312-1 1v2c0 .554688.449219 1 1 1s1-.445312 1-1v-2c0-.554688-.449219-1-1-1zm5 0c-.550781 0-1 .445312-1 1v2c0 .554688.449219 1 1 1s1-.445312 1-1v-2c0-.554688-.449219-1-1-1zm5 0c-.550781 0-1 .445312-1 1v2c0 .554688.449219 1 1 1s1-.445312 1-1v-2c0-.554688-.449219-1-1-1zm5 0c-.550781 0-1 .445312-1 1v2c0 .554688.449219 1 1 1s1-.445312 1-1v-2c0-.554688-.449219-1-1-1zm0 0" fill="#003e6b"/></svg>

<?xml version="1.0" encoding="UTF-8"?>
<svg xmlns="http://www.w3.org/2000/svg" viewBox="0 0 64 64" width="64px" height="64px">
<g id="surface12903230">
<path style=" stroke:none;fill-rule:nonzero;fill:rgb(0%,24.313726%,41.960785%);fill-opacity:1;" d="M 19.660156 4 C 18.320312 4 17.058594 4.519531 16.117188 5.460938 L 7.460938 14.117188 C 6.519531 15.070312 6 16.320312 6 17.660156 L 6 57 C 6 58.648438 7.351562 60 9 60 L 46 60 L 46 61 C 46 61.550781 46.449219 62 47 62 L 53 62 C 53.550781 62 54 61.550781 54 61 L 54 48.410156 L 56.289062 50.710938 C 56.679688 51.101562 57.320312 51.101562 57.710938 50.710938 L 61.710938 46.710938 C 62.101562 46.320312 62.101562 45.679688 61.710938 45.289062 L 52 35.582031 L 52 7 C 52 5.351562 50.648438 4 49 4 Z M 20 6 L 49 6 C 49.550781 6 50 6.449219 50 7 L 50 22 L 8 22 L 8 18 L 17 18 C 18.652344 18 20 16.652344 20 15 Z M 18 6.496094 L 18 15 C 18 15.550781 17.550781 16 17 16 L 8.503906 16 C 8.613281 15.835938 8.738281 15.679688 8.882812 15.539062 L 17.539062 6.882812 C 17.679688 6.738281 17.835938 6.609375 18 6.496094 Z M 8 24 L 50 24 L 50 34 C 49.738281 34 49.480469 34.097656 49.289062 34.289062 L 38.289062 45.289062 C 37.898438 45.679688 37.898438 46.320312 38.289062 46.710938 L 42.289062 50.710938 C 42.679688 51.101562 43.320312 51.101562 43.710938 50.710938 L 46 48.410156 L 46 52 C 45.449219 52 45 52.445312 45 53 L 45 55 C 45 55.554688 45.449219 56 46 56 L 46 58 L 9 58 C 8.449219 58 8 57.550781 8 57 L 8 46 L 35 46 C 35.550781 46 36 45.554688 36 45 C 36 44.445312 35.550781 44 35 44 L 8 44 Z M 42.980469 27.996094 C 42.589844 28.003906 42.226562 28.242188 42.070312 28.628906 L 39 36.308594 L 35.929688 28.628906 C 35.722656 28.117188 35.144531 27.863281 34.628906 28.070312 C 34.117188 28.273438 33.867188 28.859375 34.074219 29.371094 L 38.074219 39.371094 C 38.222656 39.75 38.589844 40 39 40 C 39.410156 40 39.777344 39.75 39.929688 39.371094 L 43.929688 29.371094 C 44.132812 28.859375 43.882812 28.273438 43.371094 28.070312 C 43.242188 28.019531 43.109375 27.996094 42.980469 27.996094 Z M 17 28 C 15.347656 28 14 29.347656 14 31 L 14 37 C 14 38.652344 15.347656 40 17 40 L 19 40 C 20.652344 40 22 38.652344 22 37 C 22 36.445312 21.550781 36 21 36 C 20.449219 36 20 36.445312 20 37 C 20 37.550781 19.550781 38 19 38 L 17 38 C 16.449219 38 16 37.550781 16 37 L 16 31 C 16 30.449219 16.449219 30 17 30 L 19 30 C 19.550781 30 20 30.449219 20 31 C 20 31.554688 20.449219 32 21 32 C 21.550781 32 22 31.554688 22 31 C 22 29.347656 20.652344 28 19 28 Z M 27 28 C 25.347656 28 24 29.347656 24 31 L 24 32 C 24 33.652344 25.347656 35 27 35 L 29 35 C 29.550781 35 30 35.449219 30 36 L 30 37 C 30 37.550781 29.550781 38 29 38 L 27 38 C 26.449219 38 26 37.550781 26 37 C 26 36.445312 25.550781 36 25 36 C 24.449219 36 24 36.445312 24 37 C 24 38.652344 25.347656 40 27 40 L 29 40 C 30.652344 40 32 38.652344 32 37 L 32 36 C 32 34.347656 30.652344 33 29 33 L 27 33 C 26.449219 33 26 32.550781 26 32 L 26 31 C 26 30.449219 26.449219 30 27 30 L 29 30 C 29.550781 30 30 30.449219 30 31 C 30 31.554688 30.449219 32 31 32 C 31.550781 32 32 31.554688 32 31 C 32 29.347656 30.652344 28 29 28 Z M 50 36.410156 L 59.589844 46 L 57 48.589844 L 53.710938 45.289062 C 53.421875 45.007812 52.988281 44.921875 52.621094 45.082031 C 52.238281 45.230469 52 45.601562 52 46 L 52 60 L 48 60 L 48 46 C 48 45.601562 47.761719 45.230469 47.382812 45.082031 C 47.011719 44.921875 46.578125 45.007812 46.289062 45.289062 L 43 48.589844 L 40.410156 46 Z M 11 52 C 10.449219 52 10 52.445312 10 53 L 10 55 C 10 55.554688 10.449219 56 11 56 C 11.550781 56 12 55.554688 12 55 L 12 53 C 12 52.445312 11.550781 52 11 52 Z M 16 52 C 15.449219 52 15 52.445312 15 53 L 15 55 C 15 55.554688 15.449219 56 16 56 C 16.550781 56 17 55.554688 17 55 L 17 53 C 17 52.445312 16.550781 52 16 52 Z M 21 52 C 20.449219 52 20 52.445312 20 53 L 20 55 C 20 55.554688 20.449219 56 21 56 C 21.550781 56 22 55.554688 22 55 L 22 53 C 22 52.445312 21.550781 52 21 52 Z M 26 52 C 25.449219 52 25 52.445312 25 53 L 25 55 C 25 55.554688 25.449219 56 26 56 C 26.550781 56 27 55.554688 27 55 L 27 53 C 27 52.445312 26.550781 52 26 52 Z M 31 52 C 30.449219 52 30 52.445312 30 53 L 30 55 C 30 55.554688 30.449219 56 31 56 C 31.550781 56 32 55.554688 32 55 L 32 53 C 32 52.445312 31.550781 52 31 52 Z M 36 52 C 35.449219 52 35 52.445312 35 53 L 35 55 C 35 55.554688 35.449219 56 36 56 C 36.550781 56 37 55.554688 37 55 L 37 53 C 37 52.445312 36.550781 52 36 52 Z M 41 52 C 40.449219 52 40 52.445312 40 53 L 40 55 C 40 55.554688 40.449219 56 41 56 C 41.550781 56 42 55.554688 42 55 L 42 53 C 42 52.445312 41.550781 52 41 52 Z M 41 52 "/>
</g>
</svg>
